work04/images/Montserrat.svg

<svg fill="none" height="24" viewBox="0 0 176 24" width="176" xmlns="http://www.w3.org/2000/svg"><path d="m21.128 23-.032-16.32-8.096 13.6h-1.472l-8.096-13.504v16.224h-3.072v-22.400002h2.624l9.344 15.744002 9.216-15.744002h2.624l.032 22.400002zm16.6105.192c-1.6853 0-3.2-.3733-4.544-1.12s-2.4-1.7707-3.168-3.072c-.7467-1.3227-1.12-2.816-1.12-4.48s.3733-3.1467 1.12-4.448c.768-1.32267 1.824-2.34667 3.168-3.072 1.344-.74667 2.8587-1.12 4.544-1.12s3.1893.37333 4.512 1.12c1.344.72533 2.3893 1.74933 3.136 3.072.768 1.3013 1.152 2.784 1.152 4.448s-.384 3.1573-1.152 4.48c-.7467 1.3013-1.792 2.3253-3.136 3.072-1.3227.7467-2.8267 1.12-4.512 1.12zm0-2.688c1.088 0 2.0587-.2453 2.912-.736.8747-.512 1.5573-1.216 2.048-2.112.4907-.9173.736-1.9627.736-3.136s-.2453-2.208-.736-3.104c-.4907-.9173-1.1733-1.62133-2.048-2.112-.8533-.49067-1.824-.736-2.912-.736s-2.0693.24533-2.944.736c-.8533.49067-1.536 1.1947-2.048 2.112-.4907.896-.736 1.9307-.736 3.104s.2453 2.2187.736 3.136c.512.896 1.1947 1.6 2.048 2.112.8747.4907 1.856.736 2.944.736zm22.1045-14.624c2.1547 0 3.8613.62933 5.12 1.888 1.28 1.23733 1.92 3.0613 1.92 5.472v9.76h-3.072v-9.408c0-1.6427-.3947-2.88-1.184-3.712s-1.92-1.248-3.392-1.248c-1.664 0-2.976.49067-3.936 1.472-.96.96-1.44 2.3467-1.44 4.16v8.736h-3.072v-16.96h2.944v2.56c.6187-.87467 1.4507-1.54667 2.496-2.016 1.0667-.46933 2.272-.704 3.616-.704zm22.2613 16.128c-.448.384-1.0027.6827-1.664.896-.6614.192-1.344.288-2.048.288-1.7067 0-3.0294-.4587-3.968-1.376-.9387-.9173-1.408-2.2293-1.408-3.936v-9.312h-2.88v-2.528h2.88v-3.712h3.072v3.712h4.864v2.528h-4.864v9.184c0 .9173.224 1.6213.672 2.112.4693.4907 1.1306.736 1.984.736.9386 0 1.7386-.2667 2.4-.8zm8.578 1.184c-1.3867 0-2.72-.1813-4-.544-1.28-.384-2.2827-.864-3.008-1.44l1.28-2.432c.7466.5333 1.6533.96 2.72 1.28 1.0666.32 2.144.48 3.2319.48 2.6881 0 4.0321-.768 4.0321-2.304 0-.512-.1814-.9173-.544-1.216-.3627-.2987-.8214-.512-1.376-.64-.5334-.1493-1.3014-.3093-2.304-.48-1.3654-.2133-2.4854-.4587-3.36-.736-.8534-.2773-1.5894-.7467-2.208-1.408-.6187-.6613-.928-1.5893-.928-2.784 0-1.536.64-2.76267 1.92-3.68 1.28-.93867 2.9973-1.408 5.152-1.408 1.1306 0 2.2613.13867 3.392.416 1.1306.27733 2.0586.65067 2.784 1.12l-1.312 2.432c-1.3867-.896-3.0187-1.344-4.896-1.344-1.3014 0-2.2934.21333-2.976.64-.6827.42667-1.024.992-1.024 1.696 0 .5547.192.992.576 1.312s.8533.5547 1.408.704c.576.1493 1.376.32 2.4.512 1.3653.2347 2.464.4907 3.296.768.8533.256 1.5786.704 2.176 1.344.5973.64.896 1.536.896 2.688 0 1.536-.6614 2.7627-1.984 3.68-1.3014.896-3.0827 1.344-5.344 1.344zm26.4957-8.576c0 .2347-.022.544-.064.928h-13.76c.192 1.4933.842 2.6987 1.952 3.616 1.13.896 2.528 1.344 4.192 1.344 2.026 0 3.658-.6827 4.896-2.048l1.696 1.984c-.768.896-1.728 1.5787-2.88 2.048-1.131.4693-2.4.704-3.808.704-1.792 0-3.382-.3627-4.768-1.088-1.387-.7467-2.464-1.7813-3.232-3.104-.747-1.3227-1.12-2.816-1.12-4.48 0-1.6427.362-3.1253 1.088-4.448.746-1.32267 1.76-2.34667 3.04-3.072 1.301-.74667 2.762-1.12 4.384-1.12 1.621 0 3.061.37333 4.32 1.12 1.28.72533 2.272 1.74933 2.976 3.072.725 1.3227 1.088 2.8373 1.088 4.544zm-8.384-6.144c-1.472 0-2.71.448-3.712 1.344-.982.896-1.558 2.0693-1.728 3.52h10.88c-.171-1.4293-.758-2.592-1.76-3.488-.982-.91733-2.208-1.376-3.68-1.376zm15.593.416c.534-.98133 1.323-1.728 2.368-2.24 1.046-.512 2.315-.768 3.808-.768v2.976c-.17-.02133-.405-.032-.704-.032-1.664 0-2.976.50133-3.936 1.504-.938.9813-1.408 2.3893-1.408 4.224v8.448h-3.072v-16.96h2.944zm12.907 0c.533-.98133 1.322-1.728 2.367-2.24 1.046-.512 2.315-.768 3.809-.768v2.976c-.171-.02133-.406-.032-.704-.032-1.664 0-2.976.50133-3.936 1.504-.939.9813-1.408 2.3893-1.408 4.224v8.448h-3.072v-16.96h2.944zm16.107-3.008c2.346 0 4.138.576 5.376 1.728 1.258 1.152 1.888 2.8693 1.888 5.152v10.24h-2.912v-2.24c-.512.7893-1.248 1.3973-2.208 1.824-.939.4053-2.059.608-3.36.608-1.899 0-3.424-.4587-4.576-1.376-1.131-.9173-1.696-2.1227-1.696-3.616s.544-2.688 1.632-3.584c1.088-.9173 2.816-1.376 5.184-1.376h4.864v-.608c0-1.3227-.384-2.336-1.152-3.04s-1.899-1.056-3.392-1.056c-1.003 0-1.984.17067-2.944.512-.96.32-1.771.75733-2.432 1.312l-1.28-2.304c.874-.704 1.92-1.23733 3.136-1.6 1.216-.384 2.506-.576 3.872-.576zm-.704 14.944c1.173 0 2.186-.256 3.04-.768.853-.5333 1.472-1.28 1.856-2.24v-2.368h-4.736c-2.603 0-3.904.8747-3.904 2.624 0 .8533.33 1.5253.992 2.016.661.4907 1.578.736 2.752.736zm23.189 1.184c-.448.384-1.003.6827-1.664.896-.662.192-1.344.288-2.048.288-1.707 0-3.03-.4587-3.968-1.376-.939-.9173-1.408-2.2293-1.408-3.936v-9.312h-2.88v-2.528h2.88v-3.712h3.072v3.712h4.864v2.528h-4.864v9.184c0 .9173.224 1.6213.672 2.112.469.4907 1.13.736 1.984.736.938 0 1.738-.2667 2.4-.8z" fill="#f9b64c"/></svg>

<svg width="176" height="24" viewBox="0 0 176 24" fill="none" xmlns="http://www.w3.org/2000/svg">
<path d="M21.128 23L21.096 6.68L13 20.28H11.528L3.432 6.776V23H0.36V0.599998H2.984L12.328 16.344L21.544 0.599998H24.168L24.2 23H21.128ZM37.7385 23.192C36.0532 23.192 34.5385 22.8187 33.1945 22.072C31.8505 21.3253 30.7945 20.3013 30.0265 19C29.2798 17.6773 28.9065 16.184 28.9065 14.52C28.9065 12.856 29.2798 11.3733 30.0265 10.072C30.7945 8.74933 31.8505 7.72533 33.1945 7C34.5385 6.25333 36.0532 5.88 37.7385 5.88C39.4238 5.88 40.9278 6.25333 42.2505 7C43.5945 7.72533 44.6398 8.74933 45.3865 10.072C46.1545 11.3733 46.5385 12.856 46.5385 14.52C46.5385 16.184 46.1545 17.6773 45.3865 19C44.6398 20.3013 43.5945 21.3253 42.2505 22.072C40.9278 22.8187 39.4238 23.192 37.7385 23.192ZM37.7385 20.504C38.8265 20.504 39.7972 20.2587 40.6505 19.768C41.5252 19.256 42.2078 18.552 42.6985 17.656C43.1892 16.7387 43.4345 15.6933 43.4345 14.52C43.4345 13.3467 43.1892 12.312 42.6985 11.416C42.2078 10.4987 41.5252 9.79467 40.6505 9.304C39.7972 8.81333 38.8265 8.568 37.7385 8.568C36.6505 8.568 35.6692 8.81333 34.7945 9.304C33.9412 9.79467 33.2585 10.4987 32.7465 11.416C32.2558 12.312 32.0105 13.3467 32.0105 14.52C32.0105 15.6933 32.2558 16.7387 32.7465 17.656C33.2585 18.552 33.9412 19.256 34.7945 19.768C35.6692 20.2587 36.6505 20.504 37.7385 20.504ZM59.843 5.88C61.9977 5.88 63.7043 6.50933 64.963 7.768C66.243 9.00533 66.883 10.8293 66.883 13.24V23H63.811V13.592C63.811 11.9493 63.4163 10.712 62.627 9.88C61.8377 9.048 60.707 8.632 59.235 8.632C57.571 8.632 56.259 9.12267 55.299 10.104C54.339 11.064 53.859 12.4507 53.859 14.264V23H50.787V6.04H53.731V8.6C54.3497 7.72533 55.1817 7.05333 56.227 6.584C57.2937 6.11467 58.499 5.88 59.843 5.88ZM82.1043 22.008C81.6563 22.392 81.1016 22.6907 80.4403 22.904C79.7789 23.096 79.0963 23.192 78.3923 23.192C76.6856 23.192 75.3629 22.7333 74.4243 21.816C73.4856 20.8987 73.0163 19.5867 73.0163 17.88V8.568H70.1363V6.04H73.0163V2.328H76.0883V6.04H80.9523V8.568H76.0883V17.752C76.0883 18.6693 76.3123 19.3733 76.7603 19.864C77.2296 20.3547 77.8909 20.6 78.7443 20.6C79.6829 20.6 80.4829 20.3333 81.1443 19.8L82.1043 22.008ZM90.6823 23.192C89.2956 23.192 87.9623 23.0107 86.6823 22.648C85.4023 22.264 84.3996 21.784 83.6743 21.208L84.9543 18.776C85.7009 19.3093 86.6076 19.736 87.6743 20.056C88.7409 20.376 89.8183 20.536 90.9062 20.536C93.5943 20.536 94.9383 19.768 94.9383 18.232C94.9383 17.72 94.7569 17.3147 94.3943 17.016C94.0316 16.7173 93.5729 16.504 93.0183 16.376C92.4849 16.2267 91.7169 16.0667 90.7143 15.896C89.3489 15.6827 88.2289 15.4373 87.3543 15.16C86.5009 14.8827 85.7649 14.4133 85.1463 13.752C84.5276 13.0907 84.2183 12.1627 84.2183 10.968C84.2183 9.432 84.8583 8.20533 86.1383 7.288C87.4183 6.34933 89.1356 5.88 91.2903 5.88C92.4209 5.88 93.5516 6.01867 94.6823 6.296C95.8129 6.57333 96.7409 6.94667 97.4663 7.416L96.1543 9.848C94.7676 8.952 93.1356 8.504 91.2583 8.504C89.9569 8.504 88.9649 8.71733 88.2823 9.144C87.5996 9.57067 87.2583 10.136 87.2583 10.84C87.2583 11.3947 87.4503 11.832 87.8343 12.152C88.2183 12.472 88.6876 12.7067 89.2423 12.856C89.8183 13.0053 90.6183 13.176 91.6423 13.368C93.0076 13.6027 94.1063 13.8587 94.9383 14.136C95.7916 14.392 96.5169 14.84 97.1143 15.48C97.7116 16.12 98.0103 17.016 98.0103 18.168C98.0103 19.704 97.3489 20.9307 96.0263 21.848C94.7249 22.744 92.9436 23.192 90.6823 23.192ZM117.178 14.616C117.178 14.8507 117.156 15.16 117.114 15.544H103.354C103.546 17.0373 104.196 18.2427 105.306 19.16C106.436 20.056 107.834 20.504 109.498 20.504C111.524 20.504 113.156 19.8213 114.394 18.456L116.09 20.44C115.322 21.336 114.362 22.0187 113.21 22.488C112.079 22.9573 110.81 23.192 109.402 23.192C107.61 23.192 106.02 22.8293 104.634 22.104C103.247 21.3573 102.17 20.3227 101.402 19C100.655 17.6773 100.282 16.184 100.282 14.52C100.282 12.8773 100.644 11.3947 101.37 10.072C102.116 8.74933 103.13 7.72533 104.41 7C105.711 6.25333 107.172 5.88 108.794 5.88C110.415 5.88 111.855 6.25333 113.114 7C114.394 7.72533 115.386 8.74933 116.09 10.072C116.815 11.3947 117.178 12.9093 117.178 14.616ZM108.794 8.472C107.322 8.472 106.084 8.92 105.082 9.816C104.1 10.712 103.524 11.8853 103.354 13.336H114.234C114.063 11.9067 113.476 10.744 112.474 9.848C111.492 8.93067 110.266 8.472 108.794 8.472ZM124.387 8.888C124.921 7.90667 125.71 7.16 126.755 6.648C127.801 6.136 129.07 5.88 130.563 5.88V8.856C130.393 8.83467 130.158 8.824 129.859 8.824C128.195 8.824 126.883 9.32533 125.923 10.328C124.985 11.3093 124.515 12.7173 124.515 14.552V23H121.443V6.04H124.387V8.888ZM137.294 8.888C137.827 7.90667 138.616 7.16 139.661 6.648C140.707 6.136 141.976 5.88 143.47 5.88V8.856C143.299 8.83467 143.064 8.824 142.766 8.824C141.102 8.824 139.79 9.32533 138.83 10.328C137.891 11.3093 137.422 12.7173 137.422 14.552V23H134.35V6.04H137.294V8.888ZM153.401 5.88C155.747 5.88 157.539 6.456 158.777 7.608C160.035 8.76 160.665 10.4773 160.665 12.76V23H157.753V20.76C157.241 21.5493 156.505 22.1573 155.545 22.584C154.606 22.9893 153.486 23.192 152.185 23.192C150.286 23.192 148.761 22.7333 147.609 21.816C146.478 20.8987 145.913 19.6933 145.913 18.2C145.913 16.7067 146.457 15.512 147.545 14.616C148.633 13.6987 150.361 13.24 152.729 13.24H157.593V12.632C157.593 11.3093 157.209 10.296 156.441 9.592C155.673 8.888 154.542 8.536 153.049 8.536C152.046 8.536 151.065 8.70667 150.105 9.048C149.145 9.368 148.334 9.80533 147.673 10.36L146.393 8.056C147.267 7.352 148.313 6.81867 149.529 6.456C150.745 6.072 152.035 5.88 153.401 5.88ZM152.697 20.824C153.87 20.824 154.883 20.568 155.737 20.056C156.59 19.5227 157.209 18.776 157.593 17.816V15.448H152.857C150.254 15.448 148.953 16.3227 148.953 18.072C148.953 18.9253 149.283 19.5973 149.945 20.088C150.606 20.5787 151.523 20.824 152.697 20.824ZM175.886 22.008C175.438 22.392 174.883 22.6907 174.222 22.904C173.56 23.096 172.878 23.192 172.174 23.192C170.467 23.192 169.144 22.7333 168.206 21.816C167.267 20.8987 166.798 19.5867 166.798 17.88V8.568H163.918V6.04H166.798V2.328H169.87V6.04H174.734V8.568H169.87V17.752C169.87 18.6693 170.094 19.3733 170.542 19.864C171.011 20.3547 171.672 20.6 172.526 20.6C173.464 20.6 174.264 20.3333 174.926 19.8L175.886 22.008Z" fill="#F9B64C"/>
</svg>
